src/img/header-logo.svg

<svg width="167" height="25" viewBox="0 0 167 25" fill="none" xmlns="http://www.w3.org/2000/svg">
<path d="M0.695312 0H19.8025L28.8068 12.1232L19.2438 25H5.88709L21.2054 4.37387H13.67L8.80599 10.9228L0.695312 0Z" fill="url(#paint0_linear_1412_1219)"/>
<path d="M97.7513 7.83594C93.4862 7.83594 90.0273 11.2257 90.0273 15.407C90.0273 19.5883 93.4862 22.9757 97.7513 22.9757C102.017 22.9757 105.475 19.5883 105.475 15.407C105.475 11.2257 102.019 7.83594 97.7513 7.83594ZM97.7513 20.2539C95.0211 20.2539 92.8001 18.0836 92.8001 15.407C92.8001 12.7304 95.0163 10.5601 97.7513 10.5601C100.486 10.5601 102.703 12.7304 102.703 15.407C102.703 18.0836 100.484 20.2539 97.7513 20.2539Z" fill="white"/>
<path d="M56.8451 7.83789H54.1855V22.9777H56.8451V7.83789Z" fill="white"/>
<path d="M56.8451 2.02344H54.1855V5.54631H56.8451V2.02344Z" fill="white"/>
<path d="M70.773 12.1127H68.2478C68.1724 10.6603 67.2081 9.93288 65.3572 9.93525C64.4023 9.93525 63.6479 10.1183 63.0985 10.4867C62.5774 10.7958 62.2615 11.3615 62.2686 11.9701C62.2686 12.9209 63.1574 13.6007 64.9352 14.0072L67.1515 14.5183C68.5921 14.8559 69.6295 15.336 70.2661 15.9612C70.9027 16.5816 71.221 17.4326 71.221 18.5071C71.2634 19.7955 70.6622 21.0197 69.6224 21.7709C68.5543 22.5743 67.1137 22.976 65.3006 22.9737C63.3178 22.9737 61.8112 22.4982 60.7832 21.5474C59.9132 20.7582 59.4133 19.6362 59.4062 18.4572H62.0092C62.0988 18.9801 62.311 19.4746 62.6269 19.9001C63.1315 20.5039 64.0746 20.8057 65.4563 20.8057C66.4866 20.8057 67.3047 20.6132 67.913 20.2257C68.4765 19.9286 68.8325 19.3462 68.8467 18.7044C68.8467 17.7417 68.1087 17.0808 66.6304 16.7243L64.4707 16.2156C62.8226 15.8186 61.6721 15.3432 61.019 14.7893C60.2645 14.1736 59.8872 13.2822 59.8872 12.1127C59.8448 10.8813 60.4059 9.70705 61.3891 8.97253C62.3888 8.19997 63.7304 7.81488 65.4138 7.8125C67.1727 7.8125 68.5378 8.25464 69.5116 9.1413C70.3439 9.89722 70.806 10.9836 70.773 12.1127Z" fill="white"/>
<path d="M80.3686 20.2495C77.6336 20.2495 75.4173 18.0745 75.4173 15.3955C75.4173 12.7165 77.636 10.539 80.3686 10.539C82.4694 10.5224 84.3508 11.8441 85.0629 13.8361H87.9441C87.2084 10.3964 84.0986 7.8125 80.3686 7.8125C76.0964 7.8125 72.6328 11.207 72.6328 15.3955C72.6328 19.5839 76.0964 22.976 80.3686 22.976C84.141 22.976 87.291 20.3232 87.97 16.8146H85.1148C84.4428 18.8779 82.5236 20.2685 80.3686 20.2495Z" fill="white"/>
<path d="M119.399 7.95117L113.995 22.9745H110.89L105.467 7.95117H108.581L112.354 19.5134H112.509L116.282 7.95117H119.399Z" fill="white"/>
<path d="M120.874 16.7499H134.766C134.851 16.3006 134.894 15.8442 134.894 15.3854C134.894 11.1922 131.425 7.79297 127.146 7.79297C122.867 7.79297 119.398 11.1922 119.398 15.3854C119.398 19.5786 122.867 22.9755 127.146 22.9755C130.371 22.9993 133.276 21.0049 134.431 17.967H131.345C129.81 20.3037 126.686 20.9431 124.369 19.3956C123.765 18.9915 123.253 18.4614 122.871 17.841C122.702 17.5629 122.4 17.3941 122.077 17.3917H120.874V16.7499ZM127.146 10.5243C129.322 10.5076 131.253 11.9268 131.906 14.0186H122.386C123.039 11.9268 124.97 10.5076 127.146 10.5243Z" fill="white"/>
<path d="M153.917 7.81262C152.681 7.81262 151.484 8.23574 150.522 9.01543V7.95049H147.596V22.9738H150.515V11.8489C150.515 11.3236 150.093 10.8981 149.572 10.8981H149.05V10.3609H156.006V8.22148C155.343 7.94811 154.634 7.80786 153.917 7.81262Z" fill="white"/>
<path d="M164.607 7.81262C163.371 7.81262 162.173 8.23574 161.212 9.01543V7.95049H158.283V22.9738H161.204V11.8489C161.204 11.3236 160.782 10.8981 160.261 10.8981H159.74V10.3609H166.696V8.22148C166.033 7.94811 165.323 7.80786 164.607 7.81262Z" fill="white"/>
<path d="M143.228 7.81081C141.992 7.81081 140.795 8.23393 139.833 9.01362V7.94868H136.904V22.972H139.826V11.8471C139.826 11.3265 139.411 10.9034 138.894 10.8963H138.371V10.3591H145.326V8.21967C144.661 7.94392 143.947 7.80367 143.228 7.81081Z" fill="white"/>
<path d="M50.5264 6.86797C49.786 5.35614 48.6119 4.1034 47.1548 3.27617C45.693 2.44181 43.9435 2.02581 41.9064 2.02344H34.9746V22.9752H41.7036C43.8138 22.9752 45.6128 22.5545 47.1029 21.713C48.5788 20.8834 49.7695 19.6211 50.5169 18.095C51.3021 16.5261 51.6958 14.6506 51.6958 12.4684C51.6958 10.2863 51.3068 8.42022 50.5264 6.86797ZM47.8338 16.6783C47.3481 17.7884 46.5229 18.7083 45.476 19.3074C44.4268 19.9111 43.1112 20.213 41.5292 20.213H38.1104V6.29034C38.1104 5.765 37.6884 5.3395 37.1673 5.3395H36.4482V4.79276H41.7319C43.2456 4.79276 44.5141 5.0899 45.5373 5.6818C46.563 6.28321 47.3717 7.19839 47.8456 8.29662C48.3619 9.44238 48.6189 10.8377 48.6213 12.4803C48.6213 14.1229 48.3596 15.523 47.8338 16.6783Z" fill="white"/>
<defs>
<linearGradient id="paint0_linear_1412_1219" x1="14.7522" y1="30.5862" x2="14.7522" y2="-4.04345" gradientUnits="userSpaceOnUse">
<stop stop-color="#005DE8"/>
<stop offset="1" stop-color="#0999F6"/>
</linearGradient>
</defs>
</svg>

<svg xmlns="http://www.w3.org/2000/svg" width="167" height="25" fill="none" xmlns:v="https://vecta.io/nano"><path d="M.695 0h19.107l9.004 12.123L19.244 25H5.887L21.205 4.374H13.67l-4.864 6.549L.695 0z" fill="url(#A)"/><path d="M97.751 7.836c-4.265 0-7.724 3.39-7.724 7.571s3.459 7.569 7.724 7.569 7.724-3.387 7.724-7.569-3.456-7.571-7.724-7.571zm0 12.418c-2.73 0-4.951-2.17-4.951-4.847s2.216-4.847 4.951-4.847 4.952 2.17 4.952 4.847-2.219 4.847-4.952 4.847zM56.845 7.838h-2.66v15.14h2.66V7.838zm0-5.815h-2.66v3.523h2.66V2.023zm13.928 10.09h-2.525c-.075-1.452-1.04-2.18-2.891-2.177-.955 0-1.709.183-2.259.551a1.7 1.7 0 0 0-.83 1.483c0 .951.889 1.631 2.667 2.037l2.216.511c1.441.338 2.478.818 3.115 1.443s.955 1.471.955 2.546a3.87 3.87 0 0 1-1.599 3.264c-1.068.803-2.509 1.205-4.322 1.203-1.983 0-3.489-.476-4.517-1.426-.87-.789-1.37-1.911-1.377-3.09h2.603a3.38 3.38 0 0 0 .618 1.443c.505.604 1.448.906 2.829.906 1.03 0 1.848-.193 2.457-.58a1.76 1.76 0 0 0 .934-1.521c0-.963-.738-1.624-2.216-1.98l-2.16-.509c-1.648-.397-2.799-.872-3.452-1.426-.755-.616-1.132-1.507-1.132-2.677a3.76 3.76 0 0 1 1.502-3.14c1-.773 2.341-1.158 4.025-1.16 1.759 0 3.124.442 4.098 1.329.832.756 1.294 1.842 1.261 2.971zm9.596 8.137c-2.735 0-4.951-2.175-4.951-4.854s2.219-4.857 4.951-4.857a4.95 4.95 0 0 1 4.694 3.297h2.881c-.736-3.44-3.846-6.024-7.576-6.024-4.272 0-7.736 3.395-7.736 7.583s3.464 7.58 7.736 7.58c3.772 0 6.922-2.653 7.601-6.161h-2.855c-.672 2.063-2.591 3.454-4.746 3.435zm39.03-12.299l-5.404 15.023h-3.105l-5.423-15.023h3.114l3.773 11.562h.155l3.773-11.562h3.117zm1.475 8.799h13.892c.085-.449.128-.906.128-1.364 0-4.193-3.469-7.592-7.748-7.592s-7.748 3.399-7.748 7.592 3.469 7.59 7.748 7.59c3.225.024 6.13-1.971 7.285-5.009h-3.086a5.01 5.01 0 0 1-6.976 1.429 5.07 5.07 0 0 1-1.498-1.555.94.94 0 0 0-.794-.449h-1.203v-.642zm6.272-6.226c2.176-.017 4.107 1.402 4.76 3.494h-9.52c.653-2.092 2.584-3.511 4.76-3.494zm26.771-2.711c-1.236 0-2.433.423-3.395 1.203V7.95h-2.926v15.023h2.919V11.849c0-.525-.422-.951-.943-.951h-.522v-.537h6.956v-2.14c-.663-.273-1.372-.414-2.089-.409zm10.69 0c-1.236 0-2.434.423-3.395 1.203V7.95h-2.929v15.023h2.921V11.849c0-.525-.422-.951-.943-.951h-.521v-.537h6.956v-2.14a5.39 5.39 0 0 0-2.089-.409zm-21.379-.002c-1.236 0-2.433.423-3.395 1.203V7.949h-2.929v15.023h2.922V11.847c0-.521-.415-.944-.932-.951h-.523v-.537h6.955V8.22a5.34 5.34 0 0 0-2.098-.409zm-92.702-.943a8.35 8.35 0 0 0-3.372-3.592c-1.462-.834-3.211-1.25-5.248-1.253h-6.932v20.952h6.729c2.11 0 3.909-.421 5.399-1.262 1.476-.83 2.667-2.092 3.414-3.618.785-1.569 1.179-3.444 1.179-5.627s-.389-4.048-1.169-5.6zm-2.693 9.81a5.62 5.62 0 0 1-2.358 2.629c-1.049.604-2.365.906-3.947.906H38.11V6.29c0-.525-.422-.951-.943-.951h-.719v-.547h5.284c1.514 0 2.782.297 3.805.889a5.6 5.6 0 0 1 2.308 2.615c.516 1.146.773 2.541.776 4.184s-.262 3.043-.788 4.198z" fill="#fff"/><defs><linearGradient id="A" x1="14.752" y1="30.586" x2="14.752" y2="-4.043" gradientUnits="userSpaceOnUse"><stop stop-color="#005de8"/><stop offset="1" stop-color="#0999f6"/></linearGradient></defs></svg>
